X:184
T: Ich gung emol spazieren (3-24), S. 62
N: K1159
O: Luxemburg
S: KINTZELE, Guillaume: An der Ucht, Bd. 3 Luxemburg 1928]
R: Scherz-, Spottlied ber die Liebe]
M: 2/4
L: 1/16
K: F
C2 | F3FF2G2 | A4F2A2 | c4C4 | F4z2
C2 | B3BB2B2 | B2d2d4 | f4e2d2 | c4z2
A2 | A3AA2A2 | A2c2c4 | G3BA2G2 | F4z2

@@@ Tune index: 8238
